X: 21253
T: BILLY MILL
C: By James henderson
R: hornpipe
B: K\"ohler's Violin Repository, v.2, 1885 p.125 #3
F: http://www.archive.org/details/klersviolinrepos02rugg
Z: 2012 John Chambers <jc:trillian.mit.edu>
M: C|
L: 1/8
K: C
u((3ABc) |\
(d>c)d>e (f>d)c>d | (g>e)c>A G2FE | (F>A)d>c (B>d)g>f | (3efe (3dcB
(3Agf (3edc | (d>c)d>e (f>d)c>d | (g>e)c>A G2FE | (F>A)d>f (g>b)a>c | d2D2D2 :|
|: u(fg) |\
(3aba (3gfe (d>A)F>D | (D>F)A>d f2(e>f) | (3gag (3fed (c>A)G>E | D>D(E>D)
becA | (d>c)d>e (f>d)c>d | (g>e)c>A G2FE | (F>A)d>f (g>b)a>c | d2D2D2 :|

%%sep 2 1 500

